X:562
T:Polska efter Olof Nordblad
T:(SvL Hälsingland 562)
R:Polska
O:Norrala, Hälsingland
S:Olof Nordblad
B:Svenska Låtar Hälsingland
M:3/4
L:1/8
K:C
G|c2 eg ga|gf df fe|c2 eg Bd|c2 AA G2|
c2 eg ga|gf df fe|c2 eg Bd|d2 c2 z:|
|:G|c2 eg Bd|c2 AA G2|c2 eg Bd|d2 c2 z:|

